lams_central/web/images/svg/lams_logo_white.svg

CTYPE svg  PUBLIC '-//W3C//DTD SVG 20010904//EN'  'http://www.w3.org/TR/2001/REC-SVG-20010904/DTD/svg10.dtd'>
<svg viewBox="0 0 867 276" xmlns="http://www.w3.org/2000/svg">
<path d="m175.14 250l20.55-45 62.89-141s21-48 21-48c2-4.61 4.38-14.9 10.42-14.9 5.82 0 8.16 10.4 10.01 14.9 0 0 19.98 48 19.98 48l58.87 139 19.45 44 10.69 24c-10.23-1.83-29.56-1.38-40 0 0 0-30.4-79-30.4-79l-6.4-16c-1.01-2.47-2.02-5.53-4.42-6.98-2.04-1.22-5.44-1.02-7.78-1.02h-28l-15-0.91-10 0.91h-27c-2.22 0-5.7-0.22-7.59 1.02-2.02 1.34-3.13 4.78-4.01 6.98l-6.4 16c-7.12 17.8-24.11 61.94-28 79-10.35-1.37-17.65-1.37-28 0 1.84-6.45 6.34-14.72 9.14-21zm545.23-28.01c1.61 1.13 3.54 5.17 4.72 7.01 2.29 3.57 5.65 7.77 8.5 10.91 8.51 9.39 21.03 16.65 33.41 19.43 35.11 7.86 69.56-14.9 70-52.34 0.1-8.6-0.39-15.1-4.38-23-8.07-16-28.83-26.07-44.62-32.85-23.12-9.93-44.75-15.86-60.87-37.15-4.5-5.95-7.22-10.75-9.21-18-1.4-5.1-2.85-14.73-2.92-20-0.09-7.9 0.93-17.42 3.21-25 1.42-4.74 4.68-11.77 7.25-16 13.23-21.71 41.68-33.96 66.54-34h15c12.49 0.15 24.96 3.55 36 9.26 2.89 1.49 9.54 5.01 10.87 7.92 1.18 2.57-0.47 5.45-1.45 7.82l-6.93 22.68c-1.84 3.11-4.3 1.55-5.81-0.83 0 0-3.94-7.85-3.94-7.85-4.28-8.16-9.92-14.08-17.74-18.94-29.35-18.22-72.58 3.79-73 38.94-0.1 8.87 0.07 14.69 3.9 23 6.84 14.85 25 24.54 39.1 31.25 22.56 10.75 43.07 13.83 62 32.75 6.58 6.59 10.7 12.08 13.64 21 1.68 5.09 3.22 15.62 3.35 21 0.48 21.48-8.57 46.77-24.08 61.83-16.34 15.87-37.69 22.7-59.91 24.36-9.59 0.57-9.73 1.31-20 0-19.18-2.18-22.08-1.83-40-10.95-3.42-1.74-11.34-5.8-12.8-9.33-1.17-2.84 1.23-7.95 2.06-10.91 1.77-6.4 3.2-16.32 3.74-23 1.57 0.12 2.98 0.03 4.37 0.99zm-700.37-214.03l17-1.96-1 42-1 17v174l1 15h49l20-1 37-4c-1.78 13.45-2.58 8.27 0 22l-17-1h-109l-16 1 1-20 0.96-12v-15l1.04-17v-86-50l-1.04-17v-16l-0.96-11-1-21 20 1.96zm240.15 92.04l-21.15 51 21 1 64-1-25.14-58-17.86-40s-20.85 47-20.85 47z" fill="#fff" stroke="#000"/>
<path d="m394.21 196c-0.47-3.53 0.96-11.14 1.52-15l3.99-29 8-58 4.7-38 4.74-42c0.4-3.69-0.08-12.71 4.86-12.71 4.66 0 7.42 8.1 9.23 11.71l18.99 38 55.07 106 20 37c2.92 5.39 7.93 13.44 9.69 19h2c1.65-5.76 5.07-10.68 7.75-16l19.94-37 33.62-63 25.44-47s20.11-37 20.11-37c5.49-9.9 4.87-11.77 12.14-12l5.84 55 10.88 98c3.25 26.32 6.98 74.7 14 98l7.28 18s-43 1-43 1-3.83-48-3.83-48-8.34-94-8.34-94l-5.83-56c-5.09 4.45-7.17 10.23-10.42 16l-17.36 32-53.44 102s-16.64 36-16.64 36c-1.12 2.53-4 11.64-7.8 9.83-2.3-1.1-6.27-10.19-7.59-12.83 0 0-18-37-18-37s-49.5-97-49.5-97l-15.99-31c-2.9-5.61-5.91-13.65-10.26-18l-2.84 27-7.99 71s-3.89 41-3.89 41l-2.28 18c-2.93-6.8-14.13-28.99-14.79-34z" fill="#00f1f1" stroke="#000"/>
</svg>

<?xml version="1.0" encoding="UTF-8" standalone="no"?>
<!DOCTYPE svg PUBLIC "-//W3C//DTD SVG 20010904//EN"
              "http://www.w3.org/TR/2001/REC-SVG-20010904/DTD/svg10.dtd">

<svg xmlns="http://www.w3.org/2000/svg"
     viewBox="0 0 867 276">
  <path id="Selection #2"
        fill="none" stroke="black" stroke-width="1"
        d="M 175.14,250.00
           C 175.14,250.00 195.69,205.00 195.69,205.00
             195.69,205.00 258.58,64.00 258.58,64.00
             258.58,64.00 279.58,16.00 279.58,16.00
             281.58,11.39 283.96,1.10 290.00,1.10
             295.82,1.10 298.16,11.50 300.01,16.00
             300.01,16.00 319.99,64.00 319.99,64.00
             319.99,64.00 378.86,203.00 378.86,203.00
             378.86,203.00 398.31,247.00 398.31,247.00
             398.31,247.00 409.00,271.00 409.00,271.00
             398.77,269.17 379.44,269.62 369.00,271.00
             369.00,271.00 338.60,192.00 338.60,192.00
             338.60,192.00 332.20,176.00 332.20,176.00
             331.19,173.53 330.18,170.47 327.78,169.02
             325.74,167.80 322.34,168.00 320.00,168.00
             320.00,168.00 292.00,168.00 292.00,168.00
             292.00,168.00 277.00,167.09 277.00,167.09
             277.00,167.09 267.00,168.00 267.00,168.00
             267.00,168.00 240.00,168.00 240.00,168.00
             237.78,168.00 234.30,167.78 232.41,169.02
             230.39,170.36 229.28,173.80 228.40,176.00
             228.40,176.00 222.00,192.00 222.00,192.00
             214.88,209.80 197.89,253.94 194.00,271.00
             183.65,269.63 176.35,269.63 166.00,271.00
             167.84,264.55 172.34,256.28 175.14,250.00 Z
           M 720.37,221.99
           C 721.98,223.12 723.91,227.16 725.09,229.00
             727.38,232.57 730.74,236.77 733.59,239.91
             742.10,249.30 754.62,256.56 767.00,259.34
             802.11,267.20 836.56,244.44 837.00,207.00
             837.10,198.40 836.61,191.90 832.62,184.00
             824.55,168.00 803.79,157.93 788.00,151.15
             764.88,141.22 743.25,135.29 727.13,114.00
             722.63,108.05 719.91,103.25 717.92,96.00
             716.52,90.90 715.07,81.27 715.00,76.00
             714.91,68.10 715.93,58.58 718.21,51.00
             719.63,46.26 722.89,39.23 725.46,35.00
             738.69,13.29 767.14,1.04 792.00,1.00
             792.00,1.00 807.00,1.00 807.00,1.00
             819.49,1.15 831.96,4.55 843.00,10.26
             845.89,11.75 852.54,15.27 853.87,18.18
             855.05,20.75 853.40,23.63 852.42,26.00
             852.42,26.00 845.49,48.68 845.49,48.68
             843.65,51.79 841.19,50.23 839.68,47.85
             839.68,47.85 835.74,40.00 835.74,40.00
             831.46,31.84 825.82,25.92 818.00,21.06
             788.65,2.84 745.42,24.85 745.00,60.00
             744.90,68.87 745.07,74.69 748.90,83.00
             755.74,97.85 773.90,107.54 788.00,114.25
             810.56,125.00 831.07,128.08 850.00,147.00
             856.58,153.59 860.70,159.08 863.64,168.00
             865.32,173.09 866.86,183.62 866.99,189.00
             867.47,210.48 858.42,235.77 842.91,250.83
             826.57,266.70 805.22,273.53 783.00,275.19
             773.41,275.76 773.27,276.50 763.00,275.19
             743.82,273.01 740.92,273.36 723.00,264.24
             719.58,262.50 711.66,258.44 710.20,254.91
             709.03,252.07 711.43,246.96 712.26,244.00
             714.03,237.60 715.46,227.68 716.00,221.00
             717.57,221.12 718.98,221.03 720.37,221.99 Z
           M 20.00,7.96
           C 20.00,7.96 37.00,6.00 37.00,6.00
             37.00,6.00 36.00,48.00 36.00,48.00
             36.00,48.00 35.00,65.00 35.00,65.00
             35.00,65.00 35.00,239.00 35.00,239.00
             35.00,239.00 36.00,254.00 36.00,254.00
             36.00,254.00 85.00,254.00 85.00,254.00
             85.00,254.00 105.00,253.00 105.00,253.00
             105.00,253.00 142.00,249.00 142.00,249.00
             140.22,262.45 139.42,257.27 142.00,271.00
             142.00,271.00 125.00,270.00 125.00,270.00
             125.00,270.00 16.00,270.00 16.00,270.00
             16.00,270.00 0.00,271.00 0.00,271.00
             0.00,271.00 1.00,251.00 1.00,251.00
             1.00,251.00 1.96,239.00 1.96,239.00
             1.96,239.00 1.96,224.00 1.96,224.00
             1.96,224.00 3.00,207.00 3.00,207.00
             3.00,207.00 3.00,121.00 3.00,121.00
             3.00,121.00 3.00,71.00 3.00,71.00
             3.00,71.00 1.96,54.00 1.96,54.00
             1.96,54.00 1.96,38.00 1.96,38.00
             1.96,38.00 1.00,27.00 1.00,27.00
             1.00,27.00 0.00,6.00 0.00,6.00
             0.00,6.00 20.00,7.96 20.00,7.96 Z
           M 260.15,100.00
           C 260.15,100.00 239.00,151.00 239.00,151.00
             239.00,151.00 260.00,152.00 260.00,152.00
             260.00,152.00 324.00,151.00 324.00,151.00
             324.00,151.00 298.86,93.00 298.86,93.00
             298.86,93.00 281.00,53.00 281.00,53.00
             281.00,53.00 260.15,100.00 260.15,100.00 Z" style="fill:#ffffff;fill-opacity:1"/>
  <path
     id="Selection #3"
     fill="none"
     stroke="black"
     stroke-width="1"
     d="M 394.21,196.00            C 393.74,192.47 395.17,184.86 395.73,181.00              395.73,181.00 399.72,152.00 399.72,152.00              399.72,152.00 407.72,94.00 407.72,94.00              407.72,94.00 412.42,56.00 412.42,56.00              412.42,56.00 417.16,14.00 417.16,14.00              417.56,10.31 417.08,1.29 422.02,1.29              426.68,1.29 429.44,9.39 431.25,13.00              431.25,13.00 450.24,51.00 450.24,51.00              450.24,51.00 505.31,157.00 505.31,157.00              505.31,157.00 525.31,194.00 525.31,194.00              528.23,199.39 533.24,207.44 535.00,213.00              535.00,213.00 537.00,213.00 537.00,213.00              538.65,207.24 542.07,202.32 544.75,197.00              544.75,197.00 564.69,160.00 564.69,160.00              564.69,160.00 598.31,97.00 598.31,97.00              598.31,97.00 623.75,50.00 623.75,50.00              623.75,50.00 643.86,13.00 643.86,13.00              649.35,3.10 648.73,1.23 656.00,1.00              656.00,1.00 661.84,56.00 661.84,56.00              661.84,56.00 672.72,154.00 672.72,154.00              675.97,180.32 679.70,228.70 686.72,252.00              686.72,252.00 694.00,270.00 694.00,270.00              694.00,270.00 651.00,271.00 651.00,271.00              651.00,271.00 647.17,223.00 647.17,223.00              647.17,223.00 638.83,129.00 638.83,129.00              638.83,129.00 633.00,73.00 633.00,73.00              627.91,77.45 625.83,83.23 622.58,89.00              622.58,89.00 605.22,121.00 605.22,121.00              605.22,121.00 551.78,223.00 551.78,223.00              551.78,223.00 535.14,259.00 535.14,259.00              534.02,261.53 531.14,270.64 527.34,268.83              525.04,267.73 521.07,258.64 519.75,256.00              519.75,256.00 501.75,219.00 501.75,219.00              501.75,219.00 452.25,122.00 452.25,122.00              452.25,122.00 436.26,91.00 436.26,91.00              433.36,85.39 430.35,77.35 426.00,73.00              426.00,73.00 423.16,100.00 423.16,100.00              423.16,100.00 415.17,171.00 415.17,171.00              415.17,171.00 411.28,212.00 411.28,212.00              411.28,212.00 409.00,230.00 409.00,230.00              406.07,223.20 394.87,201.01 394.21,196.00 Z"
     style="fill:#00f1f1;fill-opacity:1" />
</svg>
